X:101
T: De Steffchen, de fiert mat Spien an 't Stat (1-26), S.70
N: K1075
O: Luxemburg
S: KINTZELE, Guillaume: An der Ucht, Bd. 1, Luxemburg 1926]
R: Fuhrmannslied?]
M: 2/4
L: 1/16
K: F
C4 | F4F2F2 | A4F2A2 | c4c4 | c4z2
f2 | c4A2A2 | B2A2G2B2 | A6A2 | A4
A2A2 | G3FG3A | B4B2B2 | A3G2A2B | c4
f4 | c4A2A2 | B2G2G2B2 | A4F4 | F4

